svg/24/logo-dribbble.svg

<svg width="24" height="24" viewBox="0 0 24 24" fill="currentColor" xmlns="http://www.w3.org/2000/svg"><path fill-rule="evenodd" clip-rule="evenodd" d="M12 2C6.47585 2 2 6.47907 2 11.9982C2 17.2445 6.04746 21.5507 11.1888 21.9639V22H12C17.5242 22 22 17.5209 22 12.0018C22 6.48312 17.5246 2 12 2ZM14.2097 20.0835C13.5823 20.2547 12.9256 20.3547 12.2487 20.3744H12C10.8713 20.3744 9.79446 20.1508 8.81144 19.7456C9.76322 16.3162 12.3434 13.8597 15.2966 12.7621C15.8063 15.2321 15.4363 17.879 14.2097 20.0835ZM14.8469 11.2C11.4763 12.414 8.5326 15.1486 7.3498 18.9652C5.10282 17.4623 3.62229 14.902 3.62229 11.9982C3.62229 10.9684 3.80829 9.9819 4.14855 9.07041C5.16277 9.57574 6.24727 9.93321 7.36253 10.132C8.7832 10.3925 10.2388 10.3838 11.6553 10.1284C12.4617 9.98285 13.2489 9.75098 14.0036 9.44199C14.3396 10.0005 14.6222 10.589 14.8469 11.2ZM16.8602 12.3157C17.3473 14.5639 17.1996 16.9465 16.4223 19.117C18.7286 17.6808 20.2856 15.1551 20.3738 12.2615C19.2273 12.0537 18.0323 12.0791 16.8602 12.3157ZM20.2611 10.601C18.9914 10.4227 17.6858 10.4806 16.4104 10.753C16.1592 10.0483 15.8422 9.36948 15.4644 8.72488C16.5122 8.1197 17.4691 7.35802 18.2917 6.46987C19.2978 7.61375 19.9971 9.03386 20.2611 10.601ZM7.64915 8.53552C6.68031 8.36301 5.73926 8.05206 4.86107 7.61317C5.61636 6.38674 6.67895 5.36948 7.94165 4.66892L7.95137 4.67198C8.0891 4.71532 8.22057 4.7567 8.34717 4.80213L8.48416 4.8542C8.68954 4.93207 8.87289 5.00158 9.02605 5.07258L9.06971 5.09441L9.08011 5.09925C9.17643 5.14404 9.31504 5.21012 9.44017 5.26978L9.44375 5.27149C9.50952 5.30285 9.57143 5.33236 9.62128 5.35597L9.62317 5.35697C9.6653 5.37962 9.7008 5.39869 9.73382 5.41837C9.76067 5.4358 9.78468 5.44992 9.79757 5.45747C9.82109 5.47123 9.8453 5.48485 9.86521 5.49594L9.9115 5.52152L9.91781 5.525L9.93117 5.53237L9.93284 5.53333L9.99972 5.57162C10.0548 5.60304 10.1248 5.64296 10.2012 5.68768C10.2551 5.71929 10.3056 5.74944 10.3468 5.77498C10.3781 5.79438 10.3947 5.80548 10.4007 5.80949C10.4037 5.81146 10.4041 5.81169 10.4019 5.81001L10.4385 5.83777L10.478 5.86122C10.5383 5.89706 10.5978 5.93819 10.6721 5.98957L10.6795 5.9947C10.7113 6.0167 10.7458 6.04056 10.7842 6.06664L10.8124 6.08573L10.8363 6.09923L10.8397 6.10153C10.846 6.1058 10.8616 6.11634 10.8891 6.13601C10.931 6.16603 10.9816 6.20367 11.0373 6.24554L11.1032 6.29524C11.1371 6.32082 11.1715 6.34678 11.2007 6.36865C11.2394 6.39756 11.2866 6.43264 11.3292 6.46219C11.9517 6.93827 12.5207 7.48187 13.0273 8.08105C12.4884 8.27826 11.9328 8.43008 11.3672 8.53221C10.1343 8.75447 8.87499 8.76047 7.65339 8.53628L7.65127 8.53589L7.64915 8.53552ZM12 3.622C13.9229 3.622 15.6944 4.27055 17.1082 5.36045C16.3669 6.16243 15.4989 6.84543 14.5485 7.37993C13.895 6.54939 13.139 5.80159 12.2961 5.15951L12.2757 5.144L12.2546 5.12992L12.2488 5.12592L12.2307 5.11287C12.2151 5.10156 12.1958 5.08729 12.1727 5.06997L12.086 5.00475L12.0123 4.94919C11.9549 4.906 11.8919 4.85902 11.834 4.81755C11.7936 4.78857 11.7354 4.74757 11.6761 4.71142L11.6362 4.68385C11.559 4.63038 11.4442 4.55094 11.3397 4.48677C11.2412 4.41775 11.1082 4.33911 11.021 4.28806C10.9363 4.2385 10.8452 4.18647 10.7888 4.15428L10.7461 4.12984C10.7355 4.12366 10.7258 4.11827 10.7222 4.11626L10.7002 4.10414L10.6928 4.10006L10.6546 4.07891C10.6396 4.07057 10.6274 4.06368 10.6186 4.05853L10.6125 4.05427L10.591 4.04112C10.513 3.99348 10.4318 3.94997 10.3878 3.92638L10.3716 3.91771L10.3527 3.90757L10.3333 3.89842C10.2947 3.88016 10.2374 3.8529 10.1725 3.82193C10.7607 3.69104 11.3723 3.622 12 3.622Z"/></svg>

<svg xmlns="http://www.w3.org/2000/svg" width="24" height="24" fill="currentColor" viewBox="0 0 24 24">
  <path fill-rule="evenodd" d="M12 2C6.476 2 2 6.48 2 11.998c0 5.246 4.047 9.553 9.189 9.966V22H12c5.524 0 10-4.48 10-9.998C22 6.483 17.525 2 12 2Zm2.21 18.084a8.366 8.366 0 0 1-1.961.29H12a8.348 8.348 0 0 1-3.189-.628c.952-3.43 3.532-5.886 6.486-6.984.51 2.47.14 5.117-1.087 7.322Zm.637-8.884c-3.37 1.214-6.314 3.949-7.497 7.765a8.37 8.37 0 0 1-3.728-6.967c0-1.03.186-2.016.527-2.928 1.014.506 2.098.863 3.214 1.062 1.42.26 2.876.252 4.292-.004a11.674 11.674 0 0 0 2.349-.686c.336.559.618 1.147.843 1.758Zm2.013 1.116a12.46 12.46 0 0 1-.438 6.801 8.372 8.372 0 0 0 3.952-6.856 9.354 9.354 0 0 0-3.514.055Zm3.401-1.715a11.082 11.082 0 0 0-3.85.152 11.939 11.939 0 0 0-.947-2.028 12.123 12.123 0 0 0 2.828-2.255 8.353 8.353 0 0 1 1.97 4.131ZM7.65 8.536a10.27 10.27 0 0 1-2.788-.923 8.42 8.42 0 0 1 3.08-2.944l.01.003c.138.043.27.085.396.13l.137.052c.206.078.389.148.542.219l.044.021.01.005.36.17.004.002.177.085.002.001c.042.023.078.042.11.061a1.611 1.611 0 0 0 .132.078l.046.026.007.003.013.007.002.001.067.039.201.116c.054.031.105.061.146.087l.054.034c.003.002.003.003 0 .001l.037.028.04.023c.06.036.12.077.194.129l.008.005.104.072.028.019.024.013.004.003.05.034.147.11.066.05c.034.025.069.05.098.073.038.029.086.064.128.093a10.84 10.84 0 0 1 1.698 1.619 10.382 10.382 0 0 1-5.374.455H7.65ZM12 3.622c1.923 0 3.694.649 5.108 1.738a10.5 10.5 0 0 1-2.56 2.02 12.53 12.53 0 0 0-2.252-2.22l-.02-.016-.021-.014-.006-.004-.018-.013a4.618 4.618 0 0 1-.058-.043l-.087-.065-.074-.056a9.742 9.742 0 0 0-.178-.131 2.612 2.612 0 0 0-.158-.107l-.04-.027a6.79 6.79 0 0 0-.296-.197 5.066 5.066 0 0 0-.319-.199l-.232-.134-.043-.024-.024-.014-.022-.012-.007-.004-.038-.021a2.017 2.017 0 0 1-.036-.02l-.006-.005-.022-.013c-.078-.048-.16-.091-.203-.115l-.016-.008-.02-.01-.019-.01a57.776 57.776 0 0 1-.16-.076c.588-.131 1.2-.2 1.827-.2Z" clip-rule="evenodd"/>
</svg>
